private/svgs/icons/bio-icon.svg

<svg width="20px" height="20px" viewBox="0 0 20 20" version="1.1" xmlns="http://www.w3.org/2000/svg" xmlns:xlink="http://www.w3.org/1999/xlink">
  <g stroke="none" stroke-width="1" fill="none" fill-rule="evenodd">
    <rect x="0" y="0" width="20" height="20"></rect>
    <path d="M3,4.00684547 C3,3.45078007 3.44994876,3 4.00684547,3 L15.9931545,3 C16.5492199,3 17,3.44994876 17,4.00684547 L17,15.9931545 C17,16.5492199 16.5500512,17 15.9931545,17 L4.00684547,17 C3.45078007,17 3,16.5500512 3,15.9931545 L3,4.00684547 Z M5,6 L8,6 L8,9 L5,9 L5,6 Z M10,6 L15,6 L15,9 L10,9 L10,6 Z M5,11 L15,11 L15,14 L5,14 L5,11 Z" fill="#BFC8D7"></path>
  </g>
</svg>

<svg width="20" height="20" viewBox="0 0 20 20" xmlns="http://www.w3.org/2000/svg">
    <g fill="none" fill-rule="evenodd">
        <path d="M0 0h20v20H0z"/>
        <path d="M3 4.007C3 3.45 3.45 3 4.007 3h11.986C16.55 3 17 3.45 17 4.007v11.986C17 16.55 16.55 17 15.993 17H4.007C3.45 17 3 16.55 3 15.993V4.007zM5 6h3v3H5V6zm5 0h5v3h-5V6zm-5 5h10v3H5v-3z" fill="#BFC8D7"/>
    </g>
</svg>
